X:2
T:Wragg’s Lesson the 8th.2voices. RH.002
R:jig
S:Rev.R.Harrison’s MS,c1815,Cumbria
O:England
A:Temple Sowerby,Cumbria
Z:vmp.Simon Wilson. Review PJH, 2008.
M:6/8
L:1/8
Q:3/8=120
K:D
[V:1]|:fga aaa|abae2g|fed dcd|(f3e3)|\
fga aaa|(ab).ge2g|fad ede|dddd3:|
[V:2]|:def fff|(fg).ec2e|dAF FEF|(d3c3)|\
def fff|(fg).ec2e|dfF GFG|FFFF3:|
%
[V:1]|:(cd).e eee|def fff|(ag).e (gf).d|\
(f3e3)|(cd).e eee|(de).f fff|(gf).d .g.f.e|ddd d3:|
[V:2]|:EFG GGG|(FA)d ddd|(fe).c (ed).B|d3AGF|\
(EF).G GGG|(FA).d ddd|(ed).f .e.d.A|FFFF3:|

